X:43
T:Fairy Dance
M:4/4
K:D
L:1/8
Q:1/8=80
"D" {fg}f2 (fd) {fg}f2 (fd) | {fg}f2 (fd) "A" cece |
"D" {fg}f2 (fd) "G" gfed |1 "A" cAB(c "D" d2) de :|2 "A" cABc "D" defg ||
|: "D" a2 (af) "G (B7)" b2 (ba) | "G (Em)" g2 (ge) "A" a2 (ag) |
"D" {fg}f2 (fd) "G" gfed |1 "A" cABc "D" defg :|2 "A" cABc "D" d4 |]
N:Emma Rioux,  probably capoed

